X:1
T:Title
%%score { ( 1 3 ) | ( 2 4 ) }
L:1/8
M:3/4
K:E
V:1 treble nm="Grand Piano"
V:3 treble 
V:2 bass 
V:4 bass 
V:1
 z2 z2[Q:1/4=94] [GB]>[GB] | [GB]3 [B,EG] [EFA][EAc] | [EGB]2 [B,EG]2 [EGB]>[EGB] | %3
 [EGB]3 [DF] [B,EG][B,DA] |[M:2/4] [B,EG]4 |[M:1/4] [EGB]>[EGB] |[M:3/4] [EGB]3 [B,EG] [EFA][EAc] | %7
 [EGB]2 [B,EG]2 [EGB]>[EGB] | [EGB]3 [DF] [B,DG][A,DF] |[M:2/4] [G,E]4 |[M:4/4] z2 d6 | z2 B4 z2 | %12
 [GB]>[GB] [GB]4- [GB][FA] | [EG][DF] G6 | z2 d6 | z2 B4 z2 | [EGB]>[EGB] [EGB]4- [EGB][EFA] | %17
[M:3/4] [B,EG][A,DF] [G,E]4- | [G,E]2 z2 z2 |] %19
V:2
 z2 z2 [E,E]>[E,E] | [E,E]3 E, A,,A,, | E,2 E,2 E,>E, | B,3 B, B,,B,, |[M:2/4] E,4 |[M:1/4] E,>E, | %6
[M:3/4] E,3 E, A,,A,, | E,2 E,2 E,>E, | B,3 B, B,,B,, |[M:2/4] E,4 | %10
[M:4/4] z2[K:treble] [B,A]2 B,2 B,2 | z2[K:bass] [E,E]2 [E,E]2 [E,B,E]2 | %12
 [E,E]>[E,E] [B,E]4- [B,E][B,E] | [B,,B,][B,,B,] [E,B,E]6 | z2[K:treble] [B,A]2 B,2 z A | %15
 cB[K:bass] E,2 E,2 E,2 | E,>E, B,4- B,B, |[M:3/4] B,,B,, E,4- | E,2 z2 z2 |] %19
V:3
 x6 | x6 | x6 | x6 |[M:2/4] x4 |[M:1/4] x2 |[M:3/4] x6 | x6 | x6 |[M:2/4] x4 |[M:4/4] Be z2 A2 AA | %11
 c>B G2 G2 G2 | x8 | x8 | Be z2 A2 .A2 | z2 [EG]2 [EG]2 [B,EG]2 | x8 |[M:3/4] x6 | x6 |] %19
V:4
 x6 | x6 | x6 | x6 |[M:2/4] x4 |[M:1/4] x2 |[M:3/4] x6 | x6 | x6 |[M:2/4] x4 | %10
[M:4/4] x2[K:treble] x6 | x2[K:bass] x6 | x8 | x8 | z4[K:treble] z2 B,2 | x2[K:bass] x6 | x8 | %17
[M:3/4] x6 | x6 |] %19

